!! 00049] TT[KA
!! NN
!!!OTL: Yimong shan xiaodiao
!!!ARE: Asia, China,Shandong, Mengyin
!! Ethnic Group: Han
!! III, 317
!!!SCT: C0299
!!!YEM: Copyright 1995, estate of Helmut Schaffrath.
**kern
*ICvox
*Ivox
*M4/4
*k[f#c#g#]
*A:
{4b
4ee
8cc#
8b
4cc#
=1
8ee
8cc#
8b
8a
2b}
=2
{4b
4ee
4b
8cc#
8ee
=3
8cc#
8b
8a
8f#
2a}
=4
{4a
4cc#
8b
8cc#
4e
=5
8b
8g#
8f#
8e
2f#}
=6
{4.a
8b
8g#
8f#
8e
8c#
=7
1e}
==
!!!AGN: Xiaodiao
!! Besonders typisch; alte Melodie, neuer Text
!!!ONB: ESAC (Essen Associative Code) Database: CHINA_035
!!!AMT: simple quadruple
!!!AIN: vox
!!!EED: Helmut Schaffrath
!!!EEV: 1.0
*-
